X:5
T:"Die Rolltreppe" - schottisch/schottische/scottish
C:Ernst Spirk
S:collection Elisabeth und Christoph Huspeka
Z:abc transcription Simon Wascher
N:please mail errors to: simon.wascher@chello.at
M:2/4
L:1/16
K:G
B3c d2d2|e2e2 d2d2|cdcB A2A2|dedc B2B2|
B3c d2d2|e2e2 d2d2|cdcB A2A2|d2c2B4:|
|:B8|B8|ABc2 ABc2|e2d2d4|
B8|B8|ABc2 ABc2|d2c2B4:|
|:B2B2 BABc|d4d2d2|c2c2 cBcd|e4e2e2|
dfdf cece|BdBd AcAc|BddB AccA|BABcd4:|
B2B2 BABc|d4d2d2|c2c2 cBcd|e4e2e2|
dfdf cece|BdBd AcAc|BddB AccA|B2dcB4:|
